X: 5387
T: Bucks Of Oranmore, The
R: reel
M: 4/4
K: Dmajor
A2FA A2dB|A2FA BEE2|A2FA A2Bd|egfd edBd|
A2FA A2dB|A2FA BEE2|DEFG AFAB|defd efdB||
ADD2 ADBD|ADFA BEE2|AD F/E/D A2 B/c/d|egfd edBd|
ADD2 ADBD|ADFA BEE2|DEFG AFAB|defd efge||
a2fd edBd|a2fa bee2|a2fd edef|gefd edBd|
a2fd edBd|a2fa bee2|faaf bfaf|defd efde||
f2df e2de|f2df edBd|f2df e2ef|gefd edBd|
f2df e2de|f2df edBd|faaf bfaf|defd efdB||
Adfd edfd|Adfd edBd|Adfd e2ef|gefd edBd|
Adfd edfd|Adfd edBd|faaf bfaf|defd efdB||

